modules/hawcons-filled/icons/icon-37-two-fingers-swipe-down.svg

<?xml version="1.0" encoding="UTF-8" standalone="no"?>
<svg width="32px" height="32px" viewBox="0 0 32 32" version="1.1" xmlns="http://www.w3.org/2000/svg" xmlns:xlink="http://www.w3.org/1999/xlink" xmlns:sketch="http://www.bohemiancoding.com/sketch/ns">
    <!-- Generator: Sketch 3.0.3 (7891) - http://www.bohemiancoding.com/sketch -->
    <title>icon 37 two fingers swipe down</title>
    <desc>Created with Sketch.</desc>
    <defs></defs>
    <g id="Page-1" stroke="none" stroke-width="1" fill="none" fill-rule="evenodd" sketch:type="MSPage">
        <g id="icon-37-two-fingers-swipe-down" sketch:type="MSArtboardGroup" fill="#929292">
            <path d="M10,24 L6,24 L6,10.495728 C6,8.01243417 8.01471863,6 10.5,6 C12.9802243,6 15,8.01280601 15,10.495728 L15,24 L11,24 L11,29.049999 L14.25,25.799999 L15,26.549999 L10.5,31.049999 L6,26.549999 L6.75,25.799999 L10,29.049999 L10,24 L10,24 Z M21,24 L17,24 L17,7.50502686 C17,5.01356828 19.0147186,3 21.5,3 C23.9802243,3 26,5.01696923 26,7.50502686 L26,24 L22,24 L22,29.049999 L25.25,25.799999 L26,26.549999 L21.5,31.049999 L17,26.549999 L17.75,25.799999 L21,29.049999 L21,24 L21,24 L21,24 Z M10.5,8 C9.11928813,8 8,9.12855411 8,10.5097752 L8,14 L13,14 L13,10.5097752 C13,9.12366461 11.8903379,8 10.5,8 L10.5,8 Z M8,17 L8,18 L13,18 L13,17 L8,17 L8,17 Z M8,19 L8,20 L13,20 L13,19 L8,19 L8,19 Z M21.5,5 C20.1192881,5 19,6.12855411 19,7.50977516 L19,11 L24,11 L24,7.50977516 C24,6.12366461 22.8903379,5 21.5,5 L21.5,5 Z M19,14 L19,15 L24,15 L24,14 L19,14 L19,14 Z M19,16 L19,17 L24,17 L24,16 L19,16 L19,16 Z" id="two-fingers-swipe-down" sketch:type="MSShapeGroup"></path>
        </g>
    </g>
</svg>

<svg width="32" height="32" xmlns="http://www.w3.org/2000/svg"><path d="M10 24H6V10.496a4.501 4.501 0 0 1 9 0V24h-4v5.05l3.25-3.25.75.75-4.5 4.5-4.5-4.5.75-.75L10 29.05V24zm11 0h-4V7.505A4.5 4.5 0 0 1 21.5 3C23.98 3 26 5.017 26 7.505V24h-4v5.05l3.25-3.25.75.75-4.5 4.5-4.5-4.5.75-.75L21 29.05V24zM10.5 8C9.12 8 8 9.129 8 10.51V14h5v-3.49C13 9.124 11.89 8 10.5 8zM8 17v1h5v-1H8zm0 2v1h5v-1H8zM21.5 5C20.12 5 19 6.129 19 7.51V11h5V7.51C24 6.124 22.89 5 21.5 5zM19 14v1h5v-1h-5zm0 2v1h5v-1h-5z" fill="#929292" fill-rule="evenodd"/></svg>
